icons/line/key.svg

<svg width="24" height="24" viewBox="0 0 24 24" fill="none" xmlns="http://www.w3.org/2000/svg">
<path fill-rule="evenodd" clip-rule="evenodd" d="M10 9C10 6.23858 12.2386 4 15 4C17.7614 4 20 6.23858 20 9C20 11.7614 17.7614 14 15 14C14.4932 14 14.0057 13.9249 13.5471 13.7859C13.1941 13.6789 12.8108 13.775 12.55 14.0358L12.2929 14.2929L10.5858 16H10C8.89543 16 8 16.8954 8 18C6.89543 18 6 18.8954 6 20H4L4 17.4142L9.70711 11.7071L9.96418 11.45C10.225 11.1892 10.3211 10.8059 10.2141 10.4529C10.0751 9.99431 10 9.50683 10 9ZM15 2C11.134 2 8 5.13401 8 9C8 9.49204 8.05092 9.97307 8.14801 10.4378L2.58579 16C2.21071 16.3751 2 16.8838 2 17.4142V20C2 21.1046 2.89543 22 4 22H6C7.10457 22 8 21.1046 8 20C9.10457 20 10 19.1046 10 18H10.5858C11.1162 18 11.6249 17.7893 12 17.4142L13.5622 15.852C14.0269 15.9491 14.508 16 15 16C18.866 16 22 12.866 22 9C22 5.13401 18.866 2 15 2ZM15 6C14.4477 6 14 6.44772 14 7C14 7.55228 14.4477 8 15 8C15.5523 8 16 8.44772 16 9C16 9.55228 16.4477 10 17 10C17.5523 10 18 9.55228 18 9C18 7.34315 16.6569 6 15 6Z" fill="currentColor"/>
</svg>

<svg width="24" height="24" fill="none" xmlns="http://www.w3.org/2000/svg"><path fill-rule="evenodd" clip-rule="evenodd" d="M10 9a5 5 0 113.547 4.786 1 1 0 00-.997.25l-.257.257L10.586 16H10a2 2 0 00-2 2 2 2 0 00-2 2H4v-2.586l5.707-5.707.257-.257a1 1 0 00.25-.997A5 5 0 0110 9zm5-7a7 7 0 00-6.852 8.438L2.586 16A2 2 0 002 17.414V20a2 2 0 002 2h2a2 2 0 002-2 2 2 0 002-2h.586A2 2 0 0012 17.414l1.562-1.562A7 7 0 1015 2zm0 4a1 1 0 100 2 1 1 0 011 1 1 1 0 102 0 3 3 0 00-3-3z" fill="currentColor"/></svg>
